X:1
T:Occhi un tempo
T:Antonio Cifra
T:Source  : Le diversi Scherzi a uno, a due et tre voci---Libro secondo---Roma---G.B.Robletti---1613. Editor : André Vierendeels (l1/11/16).
T:Notes : Original clefs : C1, F3 Figures in BC are notated in original print 
T:Romano
T:Occhi un tempo
T:©
T:©
T:©
T:©
C:Antonio Cifra
Z:©
%%score 1 2
L:1/8
Q:1/4=130
M:4/4
K:F
V:1 treble nm="Soprano" snm="S"
V:2 bass nm="MusicXML Part"
V:1
 z4 d4- | d2 G2 g4- | g2 _e=B c4 | d8 | z4 g4- | g4 cBBA | A/F/G/A/ B/c/d/e/ f4 | ^c=B d4 c2 | d8 | %9
w: Oc-|* chi'un tem-|* po mia vi-|ta,|oc-|* chi di qu- sto|cor _ _ _ _ _ _ _ dol-|ce so- ste- *|gno|
 z4 d4- | f2 cc _e3 B | d4 c4 | z2 f3 f f2 | g4- gddd | e6 AB/c/ | A8 | G8 | z2 =B2 d4 | %18
w: voi|mi ne- ga- te a-|i- ta?|Que- sti son|ben _ del- la mia|mort' i _ _|se-|gni,|non piu,|
 z2 e2 g2 c2- | c2 cd d4 | d8 | z2 ff f4- | f2 ed c2- c/d/_e/d/ | =B2 z B d4- | dB B4 A2 | z4 g4- | %26
w: non piu spem'|_ o con- for-|to,|temp' è ben|_ di mo- ri- * * * *|re à che|_ piu tar- do?|Oc-|
 g4 c4 | z cde f2 _ed | dc d4 B2 | z AAB c3 =B | GG g4 fe | dc d4 B2- | BA F2 A2 G2 | z cef g4 | %34
w: * chi|ch'à si gran tor- to mo-|rir mi fa- te|à che tor- cet' il|guar- do, for- se per|non mi- rar co-|* me v'ho- no- ro|mi- rat' al- men,|
 z efg a4- | a2 ef/g/ e4 | dABc d4- | d _e/d/ c/B/A/G/ A4 | B8 |] %39
w: mi- rat' al- men|_ ch'io _ _ mo-|ro, mi- rat' al- men|_ ch'io _ _ _ _ _ mo-|ro.|
V:2
"^BC" G,8 | =B,8 | C4 C,4 |"^4 3" G,8 | C,8 | E,8 | F,6 G,2 | A,3 G, A,4 | D,8 | B,8 | A,4 G,4 | %11
 F,8 | D,8 | C,4 =B,,4 |"^6 5" C,4 C,4 | D,8 | G,8- | G,8 | C,4 E,4 | F,2 E,2 G,4 | G,8 | D,4 A,4 | %22
 =B,2 C2 A,4 | G,4 =B,,4 | D,8 | G,8 | C,8 | F,8 | B,4 G,4 | F,6 D,2 | C,4 E,2 F,2 | G,8 | %32
 D,4 C,4 | C,8 | A,2 E,2 F,3 G, | A,3 G, A,4 | D,3 A,, B,,2 C,2 | D,8 | G,8 |] %39

